X: 3098
T: SHEEP SHANKS
Q:"Reel."
R: Reel.
%R:reel
B: James Kerr "Merry Melodies" v.3 p.12 #98
Z: 2016 John Chambers <jc:trillian.mit.edu>
M: C
L: 1/8
K: A
|:\
{g}a2ed (cA)ec | Bcde fBbg |\
   a2ed (cA)ec | dfec A/A/A (Ae) ::\
   cAEA  cAec  |
   Bcde  fBfd  |\
[1 cAEA  cAec  | dfeA A/A/A (Ae) :|\
[2 ceae  dfba  | gefg aAAe |]

%%sep 1 1 500
%%sep 1 1 500

